storage/app/icons/phosphoricons/bold/chart-bar-bold.svg

<svg xmlns="http://www.w3.org/2000/svg" fill="currentColor" viewBox="0 0 256 256"><path d="M224 196h-4V40a12 12 0 0 0-12-12h-56a12 12 0 0 0-12 12v36H96a12 12 0 0 0-12 12v36H48a12 12 0 0 0-12 12v60h-4a12 12 0 0 0 0 24h192a12 12 0 0 0 0-24M164 52h32v144h-32Zm-56 48h32v96h-32Zm-48 48h24v48H60Z"/></svg>

<svg xmlns="http://www.w3.org/2000/svg" viewBox="0 0 256 256" fill="currentColor"><path d="M224,196h-4V40a12,12,0,0,0-12-12H152a12,12,0,0,0-12,12V76H96A12,12,0,0,0,84,88v36H48a12,12,0,0,0-12,12v60H32a12,12,0,0,0,0,24H224a12,12,0,0,0,0-24ZM164,52h32V196H164Zm-56,48h32v96H108ZM60,148H84v48H60Z"/></svg>
